X:1
T:Title
%%score { ( 1 3 ) | ( 2 4 ) }
L:1/8
Q:1/4=100
M:4/4
K:C
V:1 treble nm="Grand Piano"
V:3 treble 
V:2 bass 
V:4 bass 
V:1
 [EG][_E^F][=EG][_EF] [=EG]2 [Ec]2 | B2 A2 A4 | [B,D][CE][DF][EG] [FA]4 | [GB][FA][EG][DF] [CE]4 | %4
w: Haldor~Lillenas * * * * *||||
 [EG][_E^F][=EG][_EF] [=EG]2 [Ec]2 | B2 A2 A4 | [B,D][CE][DF][EG] [FA]2 [DFB]2 | c4 z4 | %8
w: ||||
 [EG]2 [EG]2 [Ec]2 [Ec]2 | BBBB F4 | F2 F2 B2 B2 | [EA][EA][EA][EA] [CE]4 | %12
w: ||||
 [EG]2 [EG]2 [Ec]2 [Ec]2 | BBBB F4 | [B,D][CE][DF][EG] [FA]2 [DFB]2 | c4 z4 |] %16
w: ||||
V:2
 [C,C][C,C][C,C][C,C] [C,C]2 [C,C]2 | [G,DF]2 [G,B,F]2 [G,B,F]4 | %2
 [G,,G,][G,,G,][G,,G,][G,,G,] [G,,G,]4 | [G,,G,][G,,G,][A,,G,][B,,G,] [C,G,]4 | %4
 [C,C][C,C][C,C][C,C] [C,C]2 [C,C]2 | [G,DF]2 [G,B,F]2 [G,B,F]4 | %6
 [G,,G,][G,,G,][G,,G,][G,,G,] G,2 G,2 | z2 A,2 [C,G,]2 z2 | [C,C]2 [C,C]2 [C,G,]2 [C,C]2 | %9
 [G,DF][G,DF][G,DF][G,DF] [G,B,D]4 | [G,B,D]2 [G,B,D]2 [G,DF]2 [G,DF]2 | %11
 [C,C][C,C][C,C][C,C] [C,G,]4 | [C,C]2 [C,C]2 [C,G,]2 [C,C]2 | [G,DF][G,DF][G,DF][G,DF] [G,B,D]4 | %14
 [G,,G,][G,,G,][G,,G,][G,,G,] G,2 G,2 | z2 A,2 [C,G,]2 z2 |] %16
V:3
 x8 | x8 | x8 | x8 | x8 | x8 | x8 | [CE]2 F2 [Ec]2 z2 | x8 | x8 | x8 | x8 | x8 | x8 | x8 | %15
 [CE]2 F2 [Ec]2 z2 |] %16
V:4
 x8 | x8 | x8 | x8 | x8 | x8 | x8 | C,4 z4 | x8 | x8 | x8 | x8 | x8 | x8 | x8 | C,4 z4 |] %16

